!!!OTL: Bierlied.
!!!OTL-incipit: SCHWARZ IST DIE TRAUER BITTER DER TOD
!!!ARE: Europa, Mitteleuropa, Deutschland, Westfalen
!!!SCT: Z1319
!!!TXL: @@DE
!!!YEM: Copyright 1995, estate of Helmut Schaffrath.
**kern	**text
*ICvox	*
*M3/4	*
*k[b-e-a-]	*
*E-:	*
=1	=1
!LO:TX:a:t=Aus Weſtphalen.	!
{4b-	Schwarʒ
8b-	iſt
8b-	die
8ee-	Trauer,
8b-	.
=2	=2
4g	bit-
8g	-ter
8g	der
4cc}	Tod!
=3	=3
{4a-	hei-
8a-	-ßa,
8a-	die
8a-	Wangen
8f	.
=4	=4
8e-L	ſind
8dJ	.
8e-	uns
8f	noch
4g}	roth!
=5	=5
{4e-	Ein'
8e-	Bulle
8e-	.
4e-	Bier,
=6	=6
4g	ʒwei
8b-/	Bulle
8b-/	.
4b-/}	Bier,
=7	=7
{4a-	Bull-
8a-	-bul-
8a-	-le
4a-	Bier,
=8	=8
8gL	Bul-
8fJ	.
8e-L	-le
8fJ	.
4g}	Bier!
=9	=9
{4e-	Ein'
8e-	Bulle
8e-	.
4e-	Bier,
=10	=10
4g	ʒwei
8b-/	Bulle
8b-/	.
4b-/}	Bier,
=11	=11
{4a-	drei
8a-L	ſind
8gJ	.
4f	nicht
=12	=12
2e-	vier!
4r}	.
==	==
!!!AGN: Zech -, Schalks - Lied
!!!ONB: ESAC (Essen Associative Code) Database: ZUCCAL
!!!AMT: simple triple
!!!AIN: vox
!!!EED: Helmut Schaffrath
!!!EEV: 1.0
!!!GTL: VIII. Zech- und Schalks-Lieder.
!!!URL-scan: https://www.digitale-sammlungen.de/de/view/bsb11160573?page=585
!!!ENC: Anna Maria Matuszewska
!!!EEV: 2025/02/07
*-	*-
